X: 1446
T: Frank Collins' Second Reel
B: australian traditional tunes wiki
M:4/4
L:1/8
R: Reel
Q: 1/4=100
K:G
V:1 
|:"Am"A3B cBcd|e2d2e2a2|"C"g2e2 "G"d2 ee|"Am"c2A2 "Em"G2E2|
"Am"A3B cBcd|e2d2e2a2|"C"g2e2 "Em"d2 ed|"Am"c2A2A4:|
|:"Am"a4g2e2|"G"d2B2g2 fg|"Am"a2A2A2 Bc|"G"d2B2G2B2|
"Am"A3B cBcd|e2d2e2a2|"C"g2e2 "Em"d2 ed|"Am"c2A2A4:|
% abcbook-tune_id 6342d53a92c0069822cfe76b


% abcbook-boost 0
% abcbook-tablature 
% abcbook-transpose 
% abcbook-lastupdated 1665324365493
% abcbook-soundfonts 
% abcbook-repeats 1
% NFF Book 2006

